!!!COM: Bach, Johann Sebastian
!!!CDT: 1685/02/21/-1750/07/28/
!!!OTL@@DE:	Nun bitten wir den heiligen Geist
!!!SCT: BWV 169/7
!!!PC#:	97
!!!AGN: chorale
**harm	**kern	**kern	**kern	**kern
*	*ICvox	*ICvox	*ICvox	*ICvox
*	*Ibass	*Itenor	*Ialto	*Isoprn
*	*I"Bass	*I"Tenor	*I"Alto	*I"Soprano
*k[f#c#g#]	*k[f#c#g#]	*k[f#c#g#]	*k[f#c#g#]	*k[f#c#g#]
*	*	*oclefC4	*oclefC3	*oclefC1
*	*clefF4	*clefGv2	*clefG2	*clefG2
*A:	*A:	*A:	*A:	*A:
*M4/4	*M4/4	*M4/4	*M4/4	*M4/4
*met(c)	*met(c)	*met(c)	*met(c)	*met(c)
*MM100	*MM100	*MM100	*MM100	*MM100
I	4A	4c#	4e	4a
=1	=1	=1	=1	=1
V6	4G#	4B	4e	4b
V	8EL	8G#L	8eL	8bL
V2	8DJ	8G#L	8eL	8bL
I6	4C#	4A	4e	4a
I	4AA	4c#	4e	4a
=2	=2	=2	=2	=2
IV	4D	4A	4d	4f#
I6	4C#	4A	4e	4e
ii7	4BB	4A	4d	4f#
V	4E	4B	4e	4g#
=3	=3	=3	=3	=3
I;	2.AA;	2.c#;	2.e;	2.a;
I	4A	4e	4a	4cc#
=4	=4	=4	=4	=4
I6	4c#	4e	4a	4ee
IV	4d	4d	4a	4ff#
V6	4G#	4B	4b	4ee
V7	4E	4e	4g#	4dd
=5	=5	=5	=5	=5
I	4A	4e	4a	4cc#
I6	4C#	4c#	4e	4a
IV	4D	4A	4d	4f#
V	4E	4E	4B	4g#
=6	=6	=6	=6	=6
I;	2AA;	2E;	2c#;	2a;
I	4A	4A	4e	4cc#
f#:V6	4E#	4G#	4g#	4cc#
=7	=7	=7	=7	=7
i	4F#	4A	4f#	4cc#
iv6	4D	4B	4f#	4b
V7	2C#	2B	2e#	2cc#
=8	=8	=8	=8	=8
i;	4F#;	4c#;	4f#;	4a;
A:IV	4D	4d	4f#	4a
viio6	4BB	4d	4g#	4b
V65	4GG#	4B	4enX	4dd
=9	=9	=9	=9	=9
I	4AA	4A	4e	4cc#
V7/IV	4AA	4G	4e	4cc#
IV;	2D;	2F#;	2d;	2a;
=10	=10	=10	=10	=10
V6	4G#X	4E	4b	4b
V7	4E	4B	4g#	4dd
I	4A	4A	4a	4cc#
I6	4C#	4A	4e	4a
=11	=11	=11	=11	=11
IV	4D	4A	4d	4f#
V2	4D	4G#	4B	4e
V2	4D	4G#	4e	4b
I6	4C#	4A	4e	4cc#
=12	=12	=12	=12	=12
E:V6	4D#	4F#	4f#	4b
V65	4D#	4B	4f#	4a
I	4E	4B	4e	4g#
ii65	8AA	8c#L	8eL	8f#L
V	8BBJ	8BJ	8d#J	8f#J
=13	=13	=13	=13	=13
I;	2E;	2G#;	2G#;	2e;
A:ii	4B	4B	4dnX	4f#
viio7/vi	4E#	4B	4d	4g#
=14	=14	=14	=14	=14
vi	4F#	4A	4c#	4a
I6	4C#	4A	4e	4a
ii65	4D	4A	4f#	4b
V7	4EnX	4G#	4d	4b
=15	=15	=15	=15	=15
I;	2.AA;	2.E;	2.c#;	2.a;
==	==	==	==	==
*-	*-	*-	*-	*-
!!!YOR1: 371 vierstimmige Choralges&auml;nge von Johann Sebastian Bach, 
!!!YOR2: 4th ed. by Alfred D&ouml;rffel (Leipzig: Breitkopf und H&auml;rtel, 
!!!YOR2: c.1875). 178 pp. Plate "V.A.10".  reprint: J.S. Bach, 371 Four-Part 
!!!YOR4: Chorales (New York: Associated Music Publishers, Inc., c.1940).
!!!SMS: B&H, 4th ed, Alfred D&ouml;rffel, c.1875, plate V.A.10
!!!EED:  Craig Stuart Sapp
!!!EEV:  2009/05/22
